X:1
T:Will Ye No Come Back Again
B:The Scottish Students Songbook. Pub. Bayley & Ferguson - London & Glasgow
S:Words by the Baroness Nairne (1766-1845) Air Attributed to Niel Gow junior (1795-1823).
F:http://www.folkinfo.org/songs
M:4/4
L:1/8
K:F
F3G A2F2|D2F2C4|c3d c2A2|A2G2G4|
w:Bon-nie Char-lie's noo a-wa, Saf-ely oe'r the friend-ly main,
F- F2G A2F2|D2F2C4|c3d c2A2|(A G2)(F F4)|
w:Mo-ny a heart will break in twa, Should he ne'er come back* a-gain
A2c2c2c2|A2c2c4|f2e2 {e}d2c2|(d c2)A {A}G4|
w:Will ye no come back a-gain? Will ye no come back* a-gain?
A A3G2F2|D F3C4|d3c c2A2|(A G2)F F4|]
w:Bet-ter lo'ed ye can-na be, Will ye no come back* a-gain?